; generated by Slic3r 1.3.0 on 2020-05-08 at 17:53:38

; external perimeters extrusion width = 0.55mm (4.37mm^3/s)
; perimeters extrusion width = 0.70mm (11.44mm^3/s)
; infill extrusion width = 0.63mm (13.45mm^3/s)
; solid infill extrusion width = 0.70mm (3.81mm^3/s)
; top infill extrusion width = 0.70mm (2.86mm^3/s)

M107
M104 S200 ; set temperature
G28 ; home all axes
G1 Z5 F5000 ; lift nozzle

; Filament gcode

M109 S200 ; set temperature and wait for it to be reached
G21 ; set units to millimeters
G90 ; use absolute coordinates
M82 ; use absolute distances for extrusion
G92 E0
G1 Z0.350 F7800.000
G1 E-2.00000 F2400.00000
G92 E0
G1 X82.443 Y74.753 F7800.000
G1 E2.00000 F2400.00000
G1 F1800
G1 X84.195 Y73.274 E2.07096
G1 X86.347 Y72.481 E2.14192
G1 X87.527 Y72.375 E2.17858
G1 X101.527 Y72.375 E2.61175
G1 X103.786 Y72.772 E2.68272
G1 X105.774 Y73.915 E2.75368
G1 X107.253 Y75.668 E2.82464
G1 X108.046 Y77.820 E2.89560
G1 X108.152 Y79.000 E2.93225
G1 X108.152 Y121.000 E4.23179
G1 X107.755 Y123.259 E4.30275
G1 X106.612 Y125.247 E4.37371
G1 X104.859 Y126.726 E4.44468
G1 X102.707 Y127.519 E4.51564
G1 X101.527 Y127.625 E4.55229
G1 X87.527 Y127.625 E4.98547
G1 X85.268 Y127.228 E5.05643
G1 X83.280 Y126.085 E5.12739
G1 X81.801 Y124.332 E5.19836
G1 X81.008 Y122.180 E5.26932
G1 X80.902 Y121.000 E5.30597
G1 X80.902 Y79.000 E6.60550
G1 X81.299 Y76.741 E6.67647
G1 X82.405 Y74.818 E6.74511
G1 E4.74511 F2400.00000
G92 E0
G1 X99.927 Y119.400 F7800.000
G1 E2.00000 F2400.00000
G1 F1800
G1 X89.127 Y119.400 E2.33418
G1 X89.127 Y80.600 E3.53472
G1 X99.927 Y80.600 E3.86890
G1 X99.927 Y119.325 E5.06711
G1 X100.552 Y120.025 F7800.000
G1 F1800
G1 X88.502 Y120.025 E5.43996
G1 X88.502 Y79.975 E6.67917
G1 X100.552 Y79.975 E7.05202
G1 X100.552 Y119.950 E8.28891
G1 X101.177 Y120.650 F7800.000
G1 F1800
G1 X87.877 Y120.650 E8.70042
G1 X87.877 Y79.350 E9.97830
G1 X101.177 Y79.350 E10.38982
G1 X101.177 Y120.575 E11.66538
G1 X100.721 Y120.446 F7800.000
G1 E9.66538 F2400.00000
G92 E0
G1 X99.059 Y119.018 F7800.000
G1 E2.00000 F2400.00000
G1 F1800
G1 X99.546 Y118.532 E2.02139
G1 X99.546 Y117.643 E2.04905
G1 X98.171 Y119.018 E2.10955
G1 X97.282 Y119.018 E2.13720
G1 X99.546 Y116.755 E2.23681
G1 X99.546 Y115.866 E2.26446
G1 X96.393 Y119.018 E2.40317
G1 X95.505 Y119.018 E2.43082
G1 X99.546 Y114.977 E2.60864
G1 X99.546 Y114.089 E2.63630
G1 X94.616 Y119.018 E2.85322
G1 X93.727 Y119.018 E2.88087
G1 X99.546 Y113.200 E3.13691
G1 X99.546 Y112.311 E3.16456
G1 X92.838 Y119.018 E3.45970
G1 X91.950 Y119.018 E3.48735
G1 X99.546 Y111.423 E3.82159
G1 X99.546 Y110.534 E3.84924
G1 X91.061 Y119.018 E4.22259
G1 X90.172 Y119.018 E4.25025
G1 X99.546 Y109.645 E4.66270
G1 X99.546 Y108.756 E4.69036
G1 X89.509 Y118.793 E5.13201
G1 X89.509 Y117.905 E5.15967
G1 X99.546 Y107.868 E5.60132
G1 X99.546 Y106.979 E5.62897
G1 X89.509 Y117.016 E6.07063
G1 X89.509 Y116.127 E6.09828
G1 X99.546 Y106.090 E6.53994
G1 X99.546 Y105.202 E6.56759
G1 X89.509 Y115.238 E7.00925
G1 X89.509 Y114.350 E7.03690
G1 X99.546 Y104.313 E7.47856
G1 X99.546 Y103.424 E7.50621
G1 X89.509 Y113.461 E7.94786
G1 X89.509 Y112.572 E7.97552
G1 X99.546 Y102.536 E8.41717
G1 X99.546 Y101.647 E8.44483
G1 X89.509 Y111.684 E8.88648
G1 X89.509 Y110.795 E8.91413
G1 X99.546 Y100.758 E9.35579
G1 X99.546 Y99.869 E9.38344
G1 X89.509 Y109.906 E9.82510
G1 X89.509 Y109.018 E9.85275
G1 X99.546 Y98.981 E10.29441
G1 X99.546 Y98.092 E10.32206
G1 X89.509 Y108.129 E10.76372
G1 X89.509 Y107.240 E10.79137
G1 X99.546 Y97.203 E11.23302
G1 X99.546 Y96.315 E11.26068
G1 X89.509 Y106.351 E11.70233
G1 X89.509 Y105.463 E11.72999
G1 X99.546 Y95.426 E12.17164
G1 X99.546 Y94.537 E12.19929
G1 X89.509 Y104.574 E12.64095
G1 X89.509 Y103.685 E12.66860
G1 X99.546 Y93.649 E13.11026
G1 X99.546 Y92.760 E13.13791
G1 X89.509 Y102.797 E13.57957
G1 X89.509 Y101.908 E13.60722
G1 X99.546 Y91.871 E14.04888
G1 X99.546 Y90.982 E14.07653
G1 X89.509 Y101.019 E14.51818
G1 X89.509 Y100.131 E14.54584
G1 X99.546 Y90.094 E14.98749
G1 X99.546 Y89.205 E15.01515
G1 X89.509 Y99.242 E15.45680
G1 X89.509 Y98.353 E15.48445
G1 X99.546 Y88.316 E15.92611
G1 X99.546 Y87.428 E15.95376
G1 X89.509 Y97.464 E16.39542
G1 X89.509 Y96.576 E16.42307
G1 X99.546 Y86.539 E16.86473
G1 X99.546 Y85.650 E16.89238
G1 X89.509 Y95.687 E17.33404
G1 X89.509 Y94.798 E17.36169
G1 X99.546 Y84.762 E17.80335
G1 X99.546 Y83.873 E17.83100
G1 X89.509 Y93.910 E18.27265
G1 X89.509 Y93.021 E18.30031
G1 X99.546 Y82.984 E18.74196
G1 X99.546 Y82.095 E18.76961
G1 X89.509 Y92.132 E19.21127
G1 X89.509 Y91.244 E19.23892
G1 X99.546 Y81.207 E19.68058
G1 X99.546 Y80.982 E19.68759
G1 X98.882 Y80.982 E19.70823
G1 X89.509 Y90.355 E20.12069
G1 X89.509 Y89.466 E20.14834
G1 X97.993 Y80.982 E20.52169
G1 X97.105 Y80.982 E20.54935
G1 X89.509 Y88.577 E20.88359
G1 X89.509 Y87.689 E20.91124
G1 X96.216 Y80.982 E21.20638
G1 X95.327 Y80.982 E21.23404
G1 X89.509 Y86.800 E21.49007
G1 X89.509 Y85.911 E21.51772
G1 X94.439 Y80.982 E21.73465
G1 X93.550 Y80.982 E21.76230
G1 X89.509 Y85.023 E21.94012
G1 X89.509 Y84.134 E21.96777
G1 X92.661 Y80.982 E22.10649
G1 X91.772 Y80.982 E22.13414
G1 X89.509 Y83.245 E22.23375
G1 X89.509 Y82.357 E22.26140
G1 X90.884 Y80.982 E22.32190
G1 X89.995 Y80.982 E22.34955
G1 X89.509 Y81.468 E22.37094
G1 Z0.650 F7800.000
G1 X100.056 Y119.529 F7800.000
G1 F3600
G1 X88.998 Y119.529 E22.66924
G1 X88.998 Y80.471 E23.72287
G1 X100.056 Y80.471 E24.02117
G1 X100.056 Y119.454 E25.07278
G1 X100.692 Y120.164 F7800.000
G1 F3600
G1 X88.363 Y120.164 E25.40537
G1 X88.363 Y79.836 E26.49330
G1 X100.692 Y79.836 E26.82588
G1 X100.692 Y120.089 E27.91179
G1 X101.252 Y120.725 F7800.000
G1 F1800
G1 X87.802 Y120.725 E28.18900
G1 X87.802 Y79.275 E29.04330
G1 X101.252 Y79.275 E29.32051
G1 X101.252 Y120.650 E30.17326
G1 X100.795 Y120.522 F7800.000
G1 X89.387 Y118.646 F7800.000
G1 F1200
G1 X89.881 Y119.140 E30.19246
G1 X90.796 Y119.140 E30.21758
G1 X89.387 Y117.731 E30.27230
G1 X89.387 Y116.816 E30.29742
G1 X91.711 Y119.140 E30.38767
G1 X92.626 Y119.140 E30.41279
G1 X89.387 Y115.901 E30.53855
G1 X89.387 Y114.986 E30.56367
G1 X93.541 Y119.140 E30.72496
G1 X94.456 Y119.140 E30.75008
G1 X89.387 Y114.072 E30.94689
G1 X89.387 Y113.157 E30.97201
G1 X95.371 Y119.140 E31.20434
G1 X96.285 Y119.140 E31.22946
G1 X89.387 Y112.242 E31.49731
G1 X89.387 Y111.327 E31.52243
G1 X97.200 Y119.140 E31.82580
G1 X98.115 Y119.140 E31.85092
G1 X89.387 Y110.412 E32.18982
G1 X89.387 Y109.497 E32.21494
G1 X99.030 Y119.140 E32.58935
G1 X99.668 Y119.140 E32.60686
G1 X99.668 Y118.863 E32.61447
G1 X89.387 Y108.582 E33.01365
G1 X89.387 Y107.668 E33.03877
G1 X99.668 Y117.948 E33.43794
G1 X99.668 Y117.033 E33.46306
G1 X89.387 Y106.753 E33.86224
G1 X89.387 Y105.838 E33.88735
G1 X99.668 Y116.119 E34.28653
G1 X99.668 Y115.204 E34.31165
G1 X89.387 Y104.923 E34.71082
G1 X89.387 Y104.008 E34.73594
G1 X99.668 Y114.289 E35.13512
G1 X99.668 Y113.374 E35.16024
G1 X89.387 Y103.093 E35.55941
G1 X89.387 Y102.178 E35.58453
G1 X99.668 Y112.459 E35.98371
G1 X99.668 Y111.544 E36.00882
G1 X89.387 Y101.264 E36.40800
G1 X89.387 Y100.349 E36.43312
G1 X99.668 Y110.629 E36.83229
G1 X99.668 Y109.715 E36.85741
G1 X89.387 Y99.434 E37.25659
G1 X89.387 Y98.519 E37.28171
G1 X99.668 Y108.800 E37.68088
G1 X99.668 Y107.885 E37.70600
G1 X89.387 Y97.604 E38.10518
G1 X89.387 Y96.689 E38.13029
G1 X99.668 Y106.970 E38.52947
G1 X99.668 Y106.055 E38.55459
G1 X89.387 Y95.774 E38.95376
G1 X89.387 Y94.860 E38.97888
G1 X99.668 Y105.140 E39.37806
G1 X99.668 Y104.225 E39.40318
G1 X89.387 Y93.945 E39.80235
G1 X89.387 Y93.030 E39.82747
G1 X99.668 Y103.311 E40.22665
G1 X99.668 Y102.396 E40.25176
G1 X89.387 Y92.115 E40.65094
G1 X89.387 Y91.200 E40.67606
G1 X99.668 Y101.481 E41.07523
G1 X99.668 Y100.566 E41.10035
G1 X89.387 Y90.285 E41.49953
G1 X89.387 Y89.370 E41.52465
G1 X99.668 Y99.651 E41.92382
G1 X99.668 Y98.736 E41.94894
G1 X89.387 Y88.456 E42.34812
G1 X89.387 Y87.541 E42.37323
G1 X99.668 Y97.822 E42.77241
G1 X99.668 Y96.907 E42.79753
G1 X89.387 Y86.626 E43.19670
G1 X89.387 Y85.711 E43.22182
G1 X99.668 Y95.992 E43.62100
G1 X99.668 Y95.077 E43.64612
G1 X89.387 Y84.796 E44.04529
G1 X89.387 Y83.881 E44.07041
G1 X99.668 Y94.162 E44.46959
G1 X99.668 Y93.247 E44.49470
G1 X89.387 Y82.967 E44.89388
G1 X89.387 Y82.052 E44.91900
G1 X99.668 Y92.332 E45.31817
G1 X99.668 Y91.418 E45.34329
G1 X89.387 Y81.137 E45.74247
G1 X89.387 Y80.860 E45.75008
G1 X90.024 Y80.860 E45.76759
G1 X99.668 Y90.503 E46.14200
G1 X99.668 Y89.588 E46.16712
G1 X90.939 Y80.860 E46.50602
G1 X91.854 Y80.860 E46.53113
G1 X99.668 Y88.673 E46.83451
G1 X99.668 Y87.758 E46.85962
G1 X92.769 Y80.860 E47.12748
G1 X93.684 Y80.860 E47.15259
G1 X99.668 Y86.843 E47.38493
G1 X99.668 Y85.928 E47.41004
G1 X94.599 Y80.860 E47.60685
G1 X95.514 Y80.860 E47.63197
G1 X99.668 Y85.014 E47.79326
G1 X99.668 Y84.099 E47.81838
G1 X96.428 Y80.860 E47.94414
G1 X97.343 Y80.860 E47.96926
G1 X99.668 Y83.184 E48.05950
G1 X99.668 Y82.269 E48.08462
G1 X98.258 Y80.860 E48.13934
G1 X99.173 Y80.860 E48.16446
G1 X99.668 Y81.354 E48.18366
G1 Z0.950 F7800.000
G1 E46.18366 F2400.00000
G92 E0
G1 X100.056 Y119.529 F7800.000
G1 E2.00000 F2400.00000
G1 F3600
G1 X88.998 Y119.529 E2.29829
G1 X88.998 Y80.471 E3.35193
G1 X100.056 Y80.471 E3.65022
G1 X100.056 Y119.454 E4.70184
G1 X100.692 Y120.164 F7800.000
G1 F3600
G1 X88.363 Y120.164 E5.03442
G1 X88.363 Y79.836 E6.12235
G1 X100.692 Y79.836 E6.45494
G1 X100.692 Y120.089 E7.54085
G1 X101.252 Y120.725 F7800.000
G1 F1800
G1 X87.802 Y120.725 E7.81806
G1 X87.802 Y79.275 E8.67236
G1 X101.252 Y79.275 E8.94956
G1 X101.252 Y120.650 E9.80232
G1 X100.795 Y120.522 F7800.000
G1 E7.80232 F2400.00000
G92 E0
G1 X99.173 Y119.140 F7800.000
G1 E2.00000 F2400.00000
G1 F900
G1 X99.668 Y118.646 E2.01920
G1 X99.668 Y117.731 E2.04432
G1 X98.258 Y119.140 E2.09904
G1 X97.343 Y119.140 E2.12416
G1 X99.668 Y116.816 E2.21440
G1 X99.668 Y115.901 E2.23952
G1 X96.428 Y119.140 E2.36529
G1 X95.514 Y119.140 E2.39041
G1 X99.668 Y114.986 E2.55169
G1 X99.668 Y114.072 E2.57681
G1 X94.599 Y119.140 E2.77362
G1 X93.684 Y119.140 E2.79874
G1 X99.668 Y113.157 E3.03107
G1 X99.668 Y112.242 E3.05619
G1 X92.769 Y119.140 E3.32404
G1 X91.854 Y119.140 E3.34916
G1 X99.668 Y111.327 E3.65253
G1 X99.668 Y110.412 E3.67765
G1 X90.939 Y119.140 E4.01654
G1 X90.024 Y119.140 E4.04166
G1 X99.668 Y109.497 E4.41608
G1 X99.668 Y108.582 E4.44120
G1 X89.387 Y118.863 E4.84037
G1 X89.387 Y117.948 E4.86549
G1 X99.668 Y107.668 E5.26466
G1 X99.668 Y106.753 E5.28978
G1 X89.387 Y117.033 E5.68896
G1 X89.387 Y116.119 E5.71408
G1 X99.668 Y105.838 E6.11325
G1 X99.668 Y104.923 E6.13837
G1 X89.387 Y115.204 E6.53754
G1 X89.387 Y114.289 E6.56266
G1 X99.668 Y104.008 E6.96184
G1 X99.668 Y103.093 E6.98695
G1 X89.387 Y113.374 E7.38613
G1 X89.387 Y112.459 E7.41125
G1 X99.668 Y102.178 E7.81042
G1 X99.668 Y101.264 E7.83554
G1 X89.387 Y111.544 E8.23472
G1 X89.387 Y110.629 E8.25983
G1 X99.668 Y100.349 E8.65901
G1 X99.668 Y99.434 E8.68413
G1 X89.387 Y109.715 E9.08330
G1 X89.387 Y108.800 E9.10842
G1 X99.668 Y98.519 E9.50760
G1 X99.668 Y97.604 E9.53271
G1 X89.387 Y107.885 E9.93189
G1 X89.387 Y106.970 E9.95701
G1 X95.332 Y101.025 E10.18784
G1 X95.468 Y101.256 E10.19520
G1 X95.780 Y101.089 E10.20491
G1 X96.019 Y100.854 E10.21411
G1 X95.789 Y100.568 E10.22418
G1 X99.668 Y96.689 E10.37479
G1 X99.668 Y95.774 E10.39991
G1 X89.387 Y106.055 E10.79909
G1 X89.387 Y105.140 E10.82420
G1 X93.318 Y101.209 E10.97684
G1 X93.405 Y101.256 E10.97955
G1 X93.597 Y100.930 E10.98993
G1 X99.668 Y94.860 E11.22563
G1 X99.668 Y93.945 E11.25075
G1 X89.387 Y104.226 E11.64992
G1 X89.387 Y103.311 E11.67504
G1 X99.668 Y93.030 E12.07422
G1 X99.668 Y92.115 E12.09933
G1 X89.387 Y102.396 E12.49851
G1 X89.387 Y101.481 E12.52363
G1 X99.668 Y91.200 E12.92280
G1 X99.668 Y90.285 E12.94792
G1 X89.387 Y100.566 E13.34710
G1 X89.387 Y99.651 E13.37221
G1 X99.668 Y89.371 E13.77139
G1 X99.668 Y88.456 E13.79651
G1 X89.387 Y98.736 E14.19568
G1 X89.387 Y97.822 E14.22080
G1 X99.668 Y87.541 E14.61997
G1 X99.668 Y86.626 E14.64509
G1 X89.387 Y96.907 E15.04427
G1 X89.387 Y95.992 E15.06939
G1 X99.668 Y85.711 E15.46856
G1 X99.668 Y84.796 E15.49368
G1 X89.387 Y95.077 E15.89285
G1 X89.387 Y94.162 E15.91797
G1 X99.668 Y83.881 E16.31715
G1 X99.668 Y82.967 E16.34226
G1 X89.387 Y93.247 E16.74144
G1 X89.387 Y92.332 E16.76656
G1 X99.668 Y82.052 E17.16573
G1 X99.668 Y81.137 E17.19085
G1 X89.387 Y91.418 E17.59003
G1 X89.387 Y90.503 E17.61514
G1 X99.030 Y80.860 E17.98956
G1 X98.115 Y80.860 E18.01468
G1 X89.387 Y89.588 E18.35357
G1 X89.387 Y88.673 E18.37869
G1 X97.200 Y80.860 E18.68207
G1 X96.285 Y80.860 E18.70718
G1 X89.387 Y87.758 E18.97504
G1 X89.387 Y86.843 E19.00015
G1 X95.370 Y80.860 E19.23248
G1 X94.456 Y80.860 E19.25760
G1 X89.387 Y85.928 E19.45441
G1 X89.387 Y85.014 E19.47953
G1 X93.541 Y80.860 E19.64082
G1 X92.626 Y80.860 E19.66593
G1 X89.387 Y84.099 E19.79170
G1 X89.387 Y83.184 E19.81682
G1 X91.711 Y80.860 E19.90706
G1 X90.796 Y80.860 E19.93218
G1 X89.387 Y82.269 E19.98690
G1 X89.387 Y81.354 E20.01202
G1 X89.881 Y80.860 E20.03122
M106 S255
G1 Z1.250 F7800.000
G1 E18.03122 F2400.00000
G92 E0
G1 X95.318 Y100.255 F7800.000
G1 E2.00000 F2400.00000
G1 F600
G1 X95.318 Y100.551 E2.00610
G1 X95.277 Y100.727 E2.00984
G1 X95.166 Y100.865 E2.01348
G1 X95.061 Y100.912 E2.01585
G1 X93.318 Y100.912 E2.05177
G1 X93.266 Y100.899 E2.05287
G1 X93.149 Y100.803 E2.05600
G1 X93.072 Y100.647 E2.05959
G1 X93.061 Y100.255 E2.06767
G1 X95.243 Y100.255 E2.11264
G1 X95.181 Y100.517 F7800.000
G1 X95.005 Y100.627 F7800.000
G1 F600
G1 X94.980 Y100.583 E2.11271
G1 X93.399 Y100.583 E2.11467
G1 X93.334 Y100.547 E2.11477
G1 Z1.550 F7800.000
G1 X95.318 Y100.470 F7800.000
G1 F600
G1 X95.308 Y100.547 E2.11636
G1 X95.250 Y100.647 E2.11873
G1 X95.147 Y100.706 E2.12118
G1 X95.071 Y100.718 E2.12276
G1 X93.307 Y100.718 E2.15912
G1 X93.175 Y100.682 E2.16195
G1 X93.093 Y100.601 E2.16433
G1 X93.061 Y100.470 E2.16709
G1 X93.061 Y100.255 E2.17154
G1 X95.318 Y100.255 E2.21806
G1 X95.318 Y100.395 E2.22096
G1 X95.272 Y100.532 F7800.000
G1 Z1.850 F7800.000
G1 X95.318 Y100.462 F7800.000
G1 F600
G1 X95.308 Y100.535 E2.22248
G1 X95.250 Y100.637 E2.22491
G1 X95.150 Y100.695 E2.22728
G1 X95.075 Y100.705 E2.22886
G1 X93.304 Y100.705 E2.26536
G1 X93.175 Y100.672 E2.26810
G1 X93.093 Y100.591 E2.27048
G1 X93.061 Y100.462 E2.27323
G1 X93.061 Y100.255 E2.27749
G1 X95.318 Y100.255 E2.32401
G1 X95.318 Y100.387 E2.32673
G1 X95.274 Y100.521 F7800.000
G1 Z2.150 F7800.000
G1 X95.318 Y100.456 F7800.000
G1 F600
G1 X95.301 Y100.555 E2.32881
G1 X95.250 Y100.637 E2.33079
G1 X95.150 Y100.695 E2.33316
G1 X95.075 Y100.705 E2.33474
G1 X93.304 Y100.705 E2.37124
G1 X93.175 Y100.672 E2.37398
G1 X93.093 Y100.591 E2.37636
G1 X93.061 Y100.462 E2.37911
G1 X93.061 Y100.255 E2.38337
G1 X95.318 Y100.255 E2.42989
G1 X95.318 Y100.381 E2.43249
G1 X95.255 Y100.535 F7800.000
G1 Z2.450 F7800.000
G1 X95.318 Y100.462 F7800.000
G1 F600
G1 X95.308 Y100.537 E2.43406
G1 X95.250 Y100.637 E2.43644
G1 X95.150 Y100.695 E2.43881
G1 X95.075 Y100.705 E2.44038
G1 X93.304 Y100.705 E2.47688
G1 X93.175 Y100.672 E2.47963
G1 X93.093 Y100.591 E2.48201
G1 X93.061 Y100.462 E2.48475
G1 X93.061 Y100.255 E2.48902
G1 X95.318 Y100.255 E2.53554
G1 X95.318 Y100.387 E2.53826
G1 X95.272 Y100.523 F7800.000
G1 Z2.750 F7800.000
G1 X95.318 Y100.462 F7800.000
G1 F600
G1 X95.309 Y100.526 E2.53960
G1 X95.269 Y100.606 E2.54143
G1 X95.177 Y100.691 E2.54402
G1 X95.075 Y100.705 E2.54615
G1 X93.304 Y100.705 E2.58265
G1 X93.175 Y100.672 E2.58540
G1 X93.093 Y100.591 E2.58777
G1 X93.061 Y100.462 E2.59052
G1 X93.061 Y100.255 E2.59479
G1 X95.318 Y100.255 E2.64130
G1 X95.318 Y100.387 E2.64402
