; generated by Slic3r 1.3.0 on 2020-04-17 at 13:36:38

; external perimeters extrusion width = 0.55mm (4.37mm^3/s)
; perimeters extrusion width = 0.70mm (11.44mm^3/s)
; infill extrusion width = 0.63mm (13.45mm^3/s)
; solid infill extrusion width = 0.70mm (3.81mm^3/s)
; top infill extrusion width = 0.70mm (2.86mm^3/s)

M107
M104 S200 ; set temperature
G28 ; home all axes
G1 Z5 F5000 ; lift nozzle

; Filament gcode

M109 S200 ; set temperature and wait for it to be reached
G21 ; set units to millimeters
G90 ; use absolute coordinates
M82 ; use absolute distances for extrusion
G92 E0
G1 Z0.350 F7800.000
G1 E-2.00000 F2400.00000
G92 E0
G1 X87.623 Y87.511 F7800.000
G1 E2.00000 F2400.00000
G1 F1800
G1 X87.971 Y87.175 E2.01497
G1 X88.939 Y86.331 E2.05471
G1 X89.967 Y85.560 E2.09445
G1 X91.047 Y84.866 E2.13419
G1 X91.746 Y84.474 E2.15897
G1 X92.901 Y83.913 E2.19871
G1 X93.346 Y83.724 E2.21368
G1 X94.552 Y83.282 E2.25342
G1 X95.319 Y83.051 E2.27819
G1 X96.026 Y82.875 E2.30074
G1 X97.044 Y82.667 E2.33290
G1 X97.837 Y82.550 E2.35768
G1 X98.562 Y82.479 E2.38022
G1 X99.600 Y82.421 E2.41239
G1 X100.400 Y82.421 E2.43716
G1 X101.128 Y82.457 E2.45970
G1 X102.163 Y82.550 E2.49187
G1 X102.956 Y82.667 E2.51664
G1 X104.213 Y82.929 E2.55638
G1 X104.681 Y83.051 E2.57136
G1 X105.448 Y83.282 E2.59613
G1 X106.654 Y83.724 E2.63587
G1 X107.824 Y84.253 E2.67561
G1 X108.254 Y84.474 E2.69058
G1 X109.366 Y85.118 E2.73032
G1 X110.033 Y85.560 E2.75510
G1 X111.061 Y86.331 E2.79484
G1 X111.433 Y86.641 E2.80981
G1 X112.377 Y87.511 E2.84955
G1 X113.256 Y88.448 E2.88929
G1 X113.768 Y89.063 E2.91406
G1 X114.530 Y90.097 E2.95380
G1 X115.214 Y91.184 E2.99354
G1 X115.451 Y91.606 E3.00851
G1 X116.022 Y92.756 E3.04826
G1 X116.508 Y93.945 E3.08800
G1 X116.906 Y95.166 E3.12773
G1 X117.109 Y95.941 E3.15251
G1 X117.258 Y96.654 E3.17505
G1 X117.430 Y97.679 E3.20722
G1 X117.517 Y98.475 E3.23199
G1 X117.582 Y99.758 E3.27173
G1 X117.553 Y101.042 E3.31147
G1 X117.517 Y101.525 E3.32645
G1 X117.430 Y102.321 E3.35122
G1 X117.315 Y103.040 E3.37376
G1 X117.109 Y104.059 E3.40593
G1 X116.906 Y104.834 E3.43070
G1 X116.688 Y105.529 E3.45325
G1 X116.335 Y106.507 E3.48541
G1 X115.817 Y107.682 E3.52515
G1 X115.451 Y108.394 E3.54993
G1 X115.214 Y108.816 E3.56490
G1 X114.530 Y109.903 E3.60464
G1 X114.064 Y110.554 E3.62941
G1 X113.611 Y111.125 E3.65196
G1 X112.933 Y111.913 E3.68412
G1 X112.377 Y112.489 E3.70890
G1 X111.433 Y113.359 E3.74864
G1 X111.061 Y113.669 E3.76361
G1 X110.033 Y114.440 E3.80335
G1 X109.366 Y114.882 E3.82812
G1 X108.739 Y115.254 E3.85067
G1 X107.824 Y115.747 E3.88283
G1 X107.099 Y116.087 E3.90761
G1 X105.906 Y116.562 E3.94735
G1 X105.448 Y116.718 E3.96232
G1 X104.681 Y116.949 E3.98709
G1 X103.431 Y117.245 E4.02683
G1 X102.163 Y117.450 E4.06657
G1 X101.682 Y117.503 E4.08155
G1 X100.400 Y117.579 E4.12128
G1 X99.600 Y117.579 E4.14606
G1 X98.318 Y117.503 E4.18580
G1 X97.044 Y117.333 E4.22554
G1 X96.569 Y117.245 E4.24051
G1 X95.319 Y116.949 E4.28025
G1 X94.552 Y116.718 E4.30502
G1 X93.346 Y116.276 E4.34476
G1 X92.176 Y115.747 E4.38450
G1 X91.746 Y115.526 E4.39948
G1 X91.047 Y115.134 E4.42425
G1 X90.430 Y114.747 E4.44680
G1 X89.573 Y114.158 E4.47896
G1 X88.939 Y113.669 E4.50373
G1 X87.971 Y112.825 E4.54347
G1 X87.623 Y112.489 E4.55845
G1 X87.067 Y111.913 E4.58322
G1 X86.232 Y110.937 E4.62296
G1 X85.470 Y109.903 E4.66270
G1 X85.076 Y109.290 E4.68524
G1 X84.549 Y108.394 E4.71741
G1 X84.183 Y107.682 E4.74218
G1 X83.882 Y107.018 E4.76473
G1 X83.492 Y106.055 E4.79689
G1 X83.233 Y105.297 E4.82167
G1 X83.094 Y104.834 E4.83664
G1 X82.786 Y103.587 E4.87638
G1 X82.570 Y102.321 E4.91612
G1 X82.483 Y101.525 E4.94089
G1 X82.418 Y100.242 E4.98063
G1 X82.447 Y98.958 E5.02037
G1 X82.483 Y98.475 E5.03535
G1 X82.641 Y97.201 E5.07509
G1 X82.891 Y95.941 E5.11483
G1 X83.094 Y95.166 E5.13960
G1 X83.233 Y94.703 E5.15457
G1 X83.665 Y93.493 E5.19431
G1 X84.183 Y92.318 E5.23405
G1 X84.786 Y91.184 E5.27379
G1 X85.203 Y90.501 E5.29857
G1 X85.936 Y89.446 E5.33831
G1 X86.232 Y89.063 E5.35328
G1 X86.744 Y88.448 E5.37805
G1 X87.571 Y87.565 E5.41547
G1 E3.41547 F2400.00000
G92 E0
G1 X107.012 Y107.300 F7800.000
G1 E2.00000 F2400.00000
G1 F1800
G1 X106.402 Y107.841 E2.02522
G1 X105.750 Y108.331 E2.05045
G1 X105.061 Y108.766 E2.07567
G1 X104.340 Y109.145 E2.10089
G1 X103.590 Y109.465 E2.12612
G1 X102.816 Y109.723 E2.15134
G1 X102.025 Y109.918 E2.17656
G1 X101.220 Y110.049 E2.20179
G1 X100.408 Y110.114 E2.22701
G1 X99.592 Y110.114 E2.25223
G1 X98.780 Y110.049 E2.27746
G1 X97.975 Y109.918 E2.30268
G1 X97.184 Y109.723 E2.32790
G1 X96.410 Y109.465 E2.35313
G1 X95.660 Y109.145 E2.37835
G1 X94.939 Y108.766 E2.40357
G1 X94.250 Y108.331 E2.42879
G1 X93.598 Y107.841 E2.45402
G1 X92.988 Y107.300 E2.47924
G1 X92.423 Y106.713 E2.50446
G1 X91.908 Y106.081 E2.52969
G1 X91.444 Y105.410 E2.55491
G1 X91.037 Y104.704 E2.58013
G1 X90.687 Y103.968 E2.60536
G1 X90.398 Y103.206 E2.63058
G1 X90.171 Y102.423 E2.65580
G1 X90.008 Y101.624 E2.68103
G1 X89.910 Y100.815 E2.70625
G1 X89.877 Y100.000 E2.73147
G1 X89.910 Y99.185 E2.75670
G1 X90.008 Y98.376 E2.78192
G1 X90.171 Y97.577 E2.80714
G1 X90.398 Y96.794 E2.83237
G1 X90.687 Y96.032 E2.85759
G1 X91.037 Y95.296 E2.88281
G1 X91.444 Y94.590 E2.90804
G1 X91.908 Y93.919 E2.93326
G1 X92.423 Y93.287 E2.95848
G1 X92.988 Y92.700 E2.98371
G1 X93.598 Y92.159 E3.00893
G1 X94.250 Y91.669 E3.03415
G1 X94.939 Y91.234 E3.05938
G1 X95.660 Y90.855 E3.08460
G1 X96.410 Y90.535 E3.10982
G1 X97.184 Y90.277 E3.13505
G1 X97.975 Y90.082 E3.16027
G1 X98.780 Y89.951 E3.18549
G1 X99.592 Y89.886 E3.21071
G1 X100.408 Y89.886 E3.23594
G1 X101.220 Y89.951 E3.26116
G1 X102.025 Y90.082 E3.28638
G1 X102.816 Y90.277 E3.31161
G1 X103.590 Y90.535 E3.33683
G1 X104.340 Y90.855 E3.36205
G1 X105.061 Y91.234 E3.38728
G1 X105.750 Y91.669 E3.41250
G1 X106.402 Y92.159 E3.43772
G1 X107.012 Y92.700 E3.46295
G1 X107.577 Y93.287 E3.48817
G1 X108.092 Y93.919 E3.51339
G1 X108.556 Y94.590 E3.53862
G1 X108.963 Y95.296 E3.56384
G1 X109.313 Y96.032 E3.58906
G1 X109.602 Y96.794 E3.61429
G1 X109.829 Y97.577 E3.63951
G1 X109.992 Y98.376 E3.66473
G1 X110.090 Y99.185 E3.68996
G1 X110.123 Y100.000 E3.71518
G1 X110.090 Y100.815 E3.74040
G1 X110.018 Y101.407 E3.75887
G1 X109.992 Y101.624 E3.76563
G1 X109.829 Y102.423 E3.79085
G1 X109.602 Y103.206 E3.81607
G1 X109.313 Y103.968 E3.84130
G1 X108.963 Y104.704 E3.86652
G1 X108.556 Y105.410 E3.89174
G1 X108.092 Y106.081 E3.91697
G1 X107.577 Y106.713 E3.94219
G1 X107.064 Y107.246 E3.96509
G1 X107.012 Y107.300 F7800.000
G1 X107.337 Y107.664 F7800.000
G1 F1800
G1 X106.788 Y108.156 E3.98793
G1 X106.174 Y108.630 E4.01192
G1 X105.528 Y109.058 E4.03590
G1 X104.852 Y109.437 E4.05988
G1 X104.150 Y109.766 E4.08386
G1 X103.426 Y110.043 E4.10784
G1 X102.684 Y110.266 E4.13183
G1 X101.927 Y110.435 E4.15581
G1 X101.161 Y110.547 E4.17979
G1 X100.388 Y110.604 E4.20377
G1 X99.612 Y110.604 E4.22775
G1 X98.839 Y110.547 E4.25174
G1 X98.073 Y110.435 E4.27572
G1 X97.316 Y110.266 E4.29970
G1 X96.574 Y110.043 E4.32368
G1 X95.850 Y109.766 E4.34766
G1 X95.148 Y109.437 E4.37164
G1 X94.472 Y109.058 E4.39563
G1 X93.826 Y108.630 E4.41961
G1 X93.212 Y108.156 E4.44359
G1 X92.635 Y107.639 E4.46757
G1 X92.097 Y107.081 E4.49155
G1 X91.601 Y106.485 E4.51554
G1 X91.150 Y105.855 E4.53952
G1 X90.747 Y105.193 E4.56350
G1 X90.392 Y104.504 E4.58748
G1 X90.089 Y103.791 E4.61146
G1 X89.839 Y103.057 E4.63545
G1 X89.643 Y102.307 E4.65943
G1 X89.502 Y101.545 E4.68341
G1 X89.417 Y100.775 E4.70739
G1 X89.409 Y100.543 E4.71457
G1 X89.389 Y100.000 E4.73137
G1 X89.417 Y99.225 E4.75535
G1 X89.502 Y98.455 E4.77934
G1 X89.643 Y97.693 E4.80332
G1 X89.839 Y96.943 E4.82730
G1 X90.089 Y96.209 E4.85128
G1 X90.392 Y95.496 E4.87526
G1 X90.747 Y94.807 E4.89925
G1 X91.150 Y94.145 E4.92323
G1 X91.601 Y93.515 E4.94721
G1 X92.097 Y92.919 E4.97119
G1 X92.635 Y92.361 E4.99517
G1 X93.212 Y91.844 E5.01916
G1 X93.826 Y91.370 E5.04314
G1 X94.472 Y90.942 E5.06712
G1 X95.148 Y90.563 E5.09110
G1 X95.850 Y90.234 E5.11508
G1 X96.574 Y89.957 E5.13907
G1 X97.316 Y89.734 E5.16305
G1 X98.073 Y89.565 E5.18703
G1 X98.839 Y89.453 E5.21101
G1 X99.612 Y89.396 E5.23499
G1 X100.388 Y89.396 E5.25897
G1 X100.619 Y89.413 E5.26615
G1 X101.161 Y89.453 E5.28296
G1 X101.927 Y89.565 E5.30694
G1 X102.684 Y89.734 E5.33092
G1 X103.426 Y89.957 E5.35490
G1 X104.150 Y90.234 E5.37888
G1 X104.852 Y90.563 E5.40287
G1 X105.528 Y90.942 E5.42685
G1 X106.174 Y91.370 E5.45083
G1 X106.788 Y91.844 E5.47481
G1 X107.365 Y92.361 E5.49879
G1 X107.903 Y92.919 E5.52278
G1 X108.399 Y93.515 E5.54676
G1 X108.850 Y94.145 E5.57074
G1 X108.971 Y94.343 E5.57792
G1 X109.253 Y94.807 E5.59472
G1 X109.608 Y95.496 E5.61870
G1 X109.911 Y96.209 E5.64268
G1 X110.161 Y96.943 E5.66667
G1 X110.357 Y97.693 E5.69065
G1 X110.498 Y98.455 E5.71463
G1 X110.583 Y99.225 E5.73861
G1 X110.611 Y100.000 E5.76259
G1 X110.583 Y100.775 E5.78658
G1 X110.498 Y101.545 E5.81056
G1 X110.357 Y102.307 E5.83454
G1 X110.161 Y103.057 E5.85852
G1 X109.911 Y103.791 E5.88250
G1 X109.608 Y104.504 E5.90649
G1 X109.253 Y105.193 E5.93047
G1 X108.850 Y105.855 E5.95445
G1 X108.399 Y106.485 E5.97843
G1 X107.903 Y107.081 E6.00241
G1 X107.391 Y107.611 E6.02521
G1 X106.857 Y107.525 F7800.000
G1 Z0.650 F7800.000
G1 X106.960 Y107.246 F7800.000
G1 F1800
G1 X106.355 Y107.783 E6.04189
G1 X105.708 Y108.269 E6.05857
G1 X105.024 Y108.701 E6.07524
G1 X104.307 Y109.077 E6.09192
G1 X103.563 Y109.395 E6.10860
G1 X102.795 Y109.651 E6.12527
G1 X102.010 Y109.845 E6.14195
G1 X101.211 Y109.974 E6.15863
G1 X100.405 Y110.039 E6.17530
G1 X99.595 Y110.039 E6.19198
G1 X98.789 Y109.974 E6.20866
G1 X97.990 Y109.845 E6.22533
G1 X97.205 Y109.651 E6.24201
G1 X96.437 Y109.395 E6.25869
G1 X95.691 Y109.077 E6.27539
G1 X94.880 Y108.641 E6.29438
G1 X94.292 Y108.269 E6.30871
G1 X93.645 Y107.783 E6.32539
G1 X93.040 Y107.246 E6.34207
G1 X92.479 Y106.663 E6.35874
G1 X91.968 Y106.036 E6.37542
G1 X91.846 Y105.860 E6.37984
G1 X91.508 Y105.370 E6.39210
G1 X91.103 Y104.669 E6.40877
G1 X90.756 Y103.938 E6.42545
G1 X90.469 Y103.182 E6.44213
G1 X90.244 Y102.405 E6.45880
G1 X90.083 Y101.612 E6.47548
G1 X89.985 Y100.808 E6.49216
G1 X89.952 Y100.000 E6.50884
G1 X89.985 Y99.192 E6.52551
G1 X90.083 Y98.388 E6.54219
G1 X90.244 Y97.595 E6.55887
G1 X90.469 Y96.818 E6.57554
G1 X90.756 Y96.062 E6.59222
G1 X91.103 Y95.331 E6.60890
G1 X91.508 Y94.630 E6.62557
G1 X91.968 Y93.964 E6.64225
G1 X92.479 Y93.337 E6.65893
G1 X93.040 Y92.754 E6.67560
G1 X93.645 Y92.217 E6.69228
G1 X94.292 Y91.731 E6.70896
G1 X94.976 Y91.299 E6.72563
G1 X95.693 Y90.923 E6.74231
G1 X96.437 Y90.605 E6.75899
G1 X97.205 Y90.349 E6.77566
G1 X97.413 Y90.298 E6.78008
G1 X97.990 Y90.155 E6.79234
G1 X98.789 Y90.026 E6.80902
G1 X99.595 Y89.961 E6.82570
G1 X100.405 Y89.961 E6.84237
G1 X101.211 Y90.026 E6.85905
G1 X102.010 Y90.155 E6.87573
G1 X102.795 Y90.349 E6.89240
G1 X103.563 Y90.605 E6.90908
G1 X104.307 Y90.923 E6.92576
G1 X104.497 Y91.022 E6.93017
G1 X105.024 Y91.299 E6.94243
G1 X105.708 Y91.731 E6.95911
G1 X106.355 Y92.217 E6.97579
G1 X106.960 Y92.754 E6.99246
G1 X107.521 Y93.337 E7.00914
G1 X108.032 Y93.964 E7.02582
G1 X108.492 Y94.630 E7.04249
G1 X108.897 Y95.331 E7.05917
G1 X109.244 Y96.062 E7.07585
G1 X109.530 Y96.818 E7.09253
G1 X109.756 Y97.595 E7.10920
G1 X109.917 Y98.388 E7.12588
G1 X110.015 Y99.192 E7.14256
G1 X110.048 Y100.000 E7.15923
G1 X110.015 Y100.808 E7.17591
G1 X109.917 Y101.612 E7.19259
G1 X109.756 Y102.405 E7.20926
G1 X109.531 Y103.182 E7.22594
G1 X109.244 Y103.938 E7.24262
G1 X108.897 Y104.669 E7.25929
G1 X108.492 Y105.370 E7.27597
G1 X108.032 Y106.036 E7.29265
G1 X107.521 Y106.663 E7.30932
G1 X107.012 Y107.192 E7.32446
G1 X106.960 Y107.246 F7800.000
G1 X107.695 Y108.067 F7800.000
G1 F1800
G1 X107.133 Y108.571 E7.34002
G1 X106.488 Y109.069 E7.35681
G1 X105.809 Y109.518 E7.37360
G1 X105.099 Y109.917 E7.39039
G1 X104.361 Y110.262 E7.40717
G1 X103.601 Y110.553 E7.42395
G1 X102.799 Y110.793 E7.44119
G1 X102.025 Y110.965 E7.45753
G1 X101.220 Y111.084 E7.47432
G1 X100.407 Y111.143 E7.49111
G1 X99.593 Y111.143 E7.50789
G1 X98.759 Y111.081 E7.52512
G1 X97.975 Y110.965 E7.54146
G1 X97.180 Y110.788 E7.55825
G1 X96.400 Y110.553 E7.57503
G1 X95.620 Y110.253 E7.59227
G1 X94.901 Y109.917 E7.60861
G1 X94.191 Y109.518 E7.62540
G1 X93.512 Y109.069 E7.64218
G1 X92.851 Y108.557 E7.65941
G1 X92.261 Y108.027 E7.67576
G1 X91.695 Y107.441 E7.69254
G1 X91.174 Y106.815 E7.70933
G1 X90.700 Y106.153 E7.72612
G1 X90.276 Y105.457 E7.74290
G1 X89.904 Y104.733 E7.75969
G1 X89.585 Y103.983 E7.77648
G1 X89.322 Y103.212 E7.79327
G1 X89.116 Y102.425 E7.81005
G1 X88.966 Y101.602 E7.82728
G1 X88.879 Y100.814 E7.84362
G1 X88.849 Y100.000 E7.86041
G1 X88.879 Y99.186 E7.87719
G1 X88.972 Y98.355 E7.89443
G1 X89.116 Y97.576 E7.91077
G1 X89.322 Y96.788 E7.92756
G1 X89.585 Y96.017 E7.94434
G1 X89.913 Y95.248 E7.96157
G1 X90.276 Y94.543 E7.97792
G1 X90.700 Y93.847 E7.99470
G1 X91.174 Y93.185 E8.01149
G1 X91.710 Y92.544 E8.02872
G1 X92.261 Y91.973 E8.04506
G1 X92.867 Y91.429 E8.06185
G1 X93.512 Y90.931 E8.07864
G1 X94.191 Y90.482 E8.09542
G1 X94.901 Y90.083 E8.11221
G1 X95.639 Y89.738 E8.12900
G1 X96.400 Y89.447 E8.14578
G1 X97.180 Y89.212 E8.16257
G1 X97.975 Y89.035 E8.17936
G1 X98.780 Y88.916 E8.19615
G1 X99.593 Y88.857 E8.21293
G1 X100.429 Y88.858 E8.23016
G1 X101.220 Y88.916 E8.24650
G1 X102.025 Y89.035 E8.26329
G1 X102.820 Y89.212 E8.28008
G1 X103.600 Y89.447 E8.29687
G1 X104.361 Y89.738 E8.31365
G1 X105.099 Y90.083 E8.33044
G1 X105.809 Y90.482 E8.34723
G1 X106.488 Y90.931 E8.36401
G1 X107.133 Y91.429 E8.38080
G1 X107.739 Y91.973 E8.39759
G1 X108.305 Y92.559 E8.41437
G1 X108.826 Y93.185 E8.43116
G1 X109.300 Y93.847 E8.44795
G1 X109.724 Y94.543 E8.46473
G1 X110.096 Y95.267 E8.48152
G1 X110.415 Y96.017 E8.49831
G1 X110.678 Y96.788 E8.51509
G1 X110.884 Y97.576 E8.53188
G1 X111.032 Y98.376 E8.54867
G1 X111.121 Y99.186 E8.56546
G1 X111.151 Y100.000 E8.58224
G1 X111.121 Y100.814 E8.59903
G1 X111.032 Y101.624 E8.61582
G1 X110.884 Y102.424 E8.63260
G1 X110.678 Y103.212 E8.64939
G1 X110.415 Y103.983 E8.66618
G1 X110.096 Y104.733 E8.68296
G1 X109.724 Y105.457 E8.69975
G1 X109.300 Y106.153 E8.71654
G1 X108.826 Y106.815 E8.73332
G1 X108.305 Y107.441 E8.75011
G1 X107.750 Y108.016 E8.76657
G1 X107.215 Y107.928 F7800.000
G1 X107.329 Y107.656 F7800.000
G1 F1200
G1 X106.694 Y108.216 E8.78373
G1 X106.166 Y108.618 E8.79718
G1 X105.520 Y109.044 E8.81287
G1 X104.552 Y109.568 E8.83516
G1 X103.747 Y109.911 E8.85289
G1 X102.937 Y110.180 E8.87018
G1 X101.925 Y110.420 E8.89127
G1 X101.159 Y110.534 E8.90696
G1 X100.438 Y110.589 E8.92162
G1 X99.584 Y110.590 E8.93891
G1 X98.712 Y110.518 E8.95665
G1 X98.075 Y110.420 E8.96970
G1 X97.320 Y110.251 E8.98538
G1 X96.253 Y109.910 E9.00808
G1 X95.465 Y109.576 E9.02543
G1 X94.594 Y109.112 E9.04543
G1 X93.835 Y108.618 E9.06377
G1 X93.290 Y108.202 E9.07768
G1 X92.666 Y107.651 E9.09453
G1 X92.107 Y107.072 E9.11084
G1 X91.535 Y106.375 E9.12912
G1 X91.039 Y105.654 E9.14685
G1 X90.613 Y104.914 E9.16414
G1 X90.407 Y104.497 E9.17358
G1 X90.104 Y103.785 E9.18926
G1 X89.854 Y103.052 E9.20494
G1 X89.715 Y102.546 E9.21558
G1 X89.543 Y101.710 E9.23287
G1 X89.436 Y100.842 E9.25061
G1 X89.401 Y99.989 E9.26790
G1 X89.438 Y99.136 E9.28520
G1 X89.520 Y98.436 E9.29948
G1 X89.658 Y97.696 E9.31474
G1 X89.946 Y96.655 E9.33663
G1 X90.249 Y95.857 E9.35392
G1 X90.623 Y95.066 E9.37165
G1 X91.163 Y94.154 E9.39314
G1 X91.612 Y93.524 E9.40881
G1 X92.061 Y92.981 E9.42308
G1 X92.644 Y92.370 E9.44020
G1 X93.289 Y91.798 E9.45767
G1 X93.990 Y91.273 E9.47541
G1 X94.711 Y90.818 E9.49270
G1 X95.155 Y90.577 E9.50294
G1 X95.856 Y90.249 E9.51862
