; generated by Slic3r 1.3.0 on 2020-04-17 at 13:37:10

; external perimeters extrusion width = 0.55mm (4.37mm^3/s)
; perimeters extrusion width = 0.70mm (11.44mm^3/s)
; infill extrusion width = 0.63mm (13.45mm^3/s)
; solid infill extrusion width = 0.70mm (3.81mm^3/s)
; top infill extrusion width = 0.70mm (2.86mm^3/s)

M107
M104 S200 ; set temperature
G28 ; home all axes
G1 Z5 F5000 ; lift nozzle

; Filament gcode

M109 S200 ; set temperature and wait for it to be reached
G21 ; set units to millimeters
G90 ; use absolute coordinates
M82 ; use absolute distances for extrusion
G92 E0
G1 Z0.350 F7800.000
G1 E-2.00000 F2400.00000
G92 E0
G1 X56.010 Y73.736 F7800.000
G1 E2.00000 F2400.00000
G1 F1800
G1 X57.151 Y72.869 E2.04433
G1 X57.651 Y72.568 E2.06240
G1 X58.951 Y71.966 E2.10672
G1 X59.504 Y71.780 E2.12479
G1 X60.903 Y71.472 E2.16911
G1 X61.484 Y71.409 E2.18717
G1 X62.200 Y71.370 E2.20937
G1 X137.800 Y71.370 E4.54853
G1 X138.516 Y71.409 E4.57073
G1 X139.097 Y71.472 E4.58879
G1 X140.496 Y71.780 E4.63312
G1 X141.049 Y71.966 E4.65118
G1 X142.349 Y72.568 E4.69550
G1 X142.849 Y72.869 E4.71357
G1 X143.990 Y73.736 E4.75790
G1 X144.414 Y74.137 E4.77596
G1 X145.341 Y75.229 E4.82028
G1 X145.669 Y75.712 E4.83835
G1 X146.340 Y76.978 E4.88268
G1 X146.556 Y77.520 E4.90074
G1 X146.939 Y78.901 E4.94507
G1 X147.034 Y79.477 E4.96314
G1 X147.121 Y80.549 E4.99640
G1 X147.121 Y116.549 E6.11029
G1 X147.080 Y117.490 E6.13945
G1 X146.848 Y118.904 E6.18377
G1 X146.692 Y119.467 E6.20184
G1 X146.161 Y120.797 E6.24617
G1 X145.888 Y121.313 E6.26424
G1 X145.084 Y122.499 E6.30856
G1 X144.706 Y122.944 E6.32663
G1 X143.666 Y123.929 E6.37094
G1 X143.201 Y124.282 E6.38901
G1 X141.974 Y125.021 E6.43334
G1 X141.444 Y125.266 E6.45141
G1 X140.086 Y125.723 E6.49573
G1 X139.516 Y125.849 E6.51380
G1 X138.092 Y126.004 E6.55812
G1 X61.908 Y126.004 E8.91535
G1 X60.484 Y125.849 E8.95967
G1 X59.914 Y125.723 E8.97773
G1 X58.556 Y125.266 E9.02206
G1 X58.026 Y125.021 E9.04012
G1 X56.799 Y124.282 E9.08446
G1 X56.334 Y123.929 E9.10253
G1 X55.294 Y122.944 E9.14684
G1 X54.916 Y122.499 E9.16490
G1 X54.112 Y121.313 E9.20923
G1 X53.839 Y120.797 E9.22730
G1 X53.308 Y119.466 E9.27162
G1 X53.152 Y118.904 E9.28968
G1 X52.920 Y117.490 E9.33401
G1 X52.889 Y116.907 E9.35208
G1 X52.879 Y80.549 E10.47706
G1 X52.966 Y79.477 E10.51033
G1 X53.061 Y78.901 E10.52840
G1 X53.444 Y77.520 E10.57272
G1 X53.660 Y76.978 E10.59079
G1 X54.331 Y75.712 E10.63512
G1 X54.659 Y75.229 E10.65318
G1 X55.586 Y74.137 E10.69750
G1 X55.956 Y73.787 E10.71325
G1 E8.71325 F2400.00000
G92 E0
G1 X137.263 Y117.641 F7800.000
G1 E2.00000 F2400.00000
G1 F1800
G1 X137.043 Y117.479 E2.00845
G1 X136.897 Y117.307 E2.01542
G1 X136.787 Y117.099 E2.02272
G1 X136.724 Y116.871 E2.03002
G1 X136.711 Y116.636 E2.03732
G1 X136.749 Y116.403 E2.04461
G1 X136.836 Y116.184 E2.05191
G1 X136.969 Y115.989 E2.05921
G1 X137.140 Y115.826 E2.06651
G1 X137.342 Y115.705 E2.07381
G1 X137.555 Y115.633 E2.08077
G1 X137.827 Y115.607 E2.08923
G1 X138.034 Y115.630 E2.09567
G1 X138.258 Y115.705 E2.10297
G1 X138.460 Y115.826 E2.11027
G1 X138.631 Y115.989 E2.11757
G1 X138.764 Y116.184 E2.12487
G1 X138.851 Y116.403 E2.13216
G1 X138.889 Y116.636 E2.13946
G1 X138.876 Y116.871 E2.14676
G1 X138.813 Y117.099 E2.15406
G1 X138.703 Y117.307 E2.16136
G1 X138.550 Y117.487 E2.16865
G1 X138.362 Y117.629 E2.17595
G1 X138.148 Y117.728 E2.18325
G1 X137.918 Y117.779 E2.19055
G1 X137.682 Y117.779 E2.19785
G1 X137.452 Y117.728 E2.20515
G1 X137.331 Y117.672 E2.20927
G1 X136.891 Y118.143 F7800.000
G1 F1800
G1 X136.613 Y117.938 E2.21996
G1 X136.377 Y117.660 E2.23126
G1 X136.203 Y117.331 E2.24276
G1 X136.103 Y116.973 E2.25427
G1 X136.083 Y116.602 E2.26577
G1 X136.143 Y116.235 E2.27727
G1 X136.281 Y115.889 E2.28878
G1 X136.490 Y115.582 E2.30028
G1 X136.759 Y115.326 E2.31178
G1 X137.078 Y115.134 E2.32329
G1 X137.424 Y115.018 E2.33459
G1 X137.831 Y114.979 E2.34725
G1 X138.170 Y115.016 E2.35777
G1 X138.522 Y115.134 E2.36928
G1 X138.841 Y115.326 E2.38078
G1 X139.110 Y115.582 E2.39228
G1 X139.319 Y115.889 E2.40379
G1 X139.457 Y116.235 E2.41529
G1 X139.517 Y116.602 E2.42680
G1 X139.497 Y116.973 E2.43830
G1 X139.397 Y117.331 E2.44980
G1 X139.223 Y117.660 E2.46131
G1 X138.982 Y117.943 E2.47281
G1 X138.686 Y118.168 E2.48431
G1 X138.349 Y118.324 E2.49582
G1 X137.986 Y118.404 E2.50732
G1 X137.614 Y118.404 E2.51883
G1 X137.251 Y118.324 E2.53033
G1 X136.952 Y118.186 E2.54051
G1 X136.519 Y118.646 F7800.000
G1 F1800
G1 X136.184 Y118.398 E2.55342
G1 X135.857 Y118.012 E2.56906
G1 X135.619 Y117.564 E2.58477
G1 X135.483 Y117.075 E2.60048
G1 X135.456 Y116.568 E2.61619
G1 X135.538 Y116.067 E2.63190
G1 X135.726 Y115.595 E2.64761
G1 X136.010 Y115.175 E2.66332
G1 X136.379 Y114.826 E2.67903
G1 X136.814 Y114.564 E2.69474
G1 X137.293 Y114.403 E2.71037
G1 X137.836 Y114.351 E2.72724
G1 X138.305 Y114.402 E2.74184
G1 X138.786 Y114.564 E2.75755
G1 X139.221 Y114.826 E2.77326
G1 X139.590 Y115.175 E2.78896
G1 X139.874 Y115.595 E2.80467
G1 X140.062 Y116.067 E2.82038
G1 X140.144 Y116.568 E2.83609
G1 X140.117 Y117.075 E2.85180
G1 X139.981 Y117.564 E2.86751
G1 X139.743 Y118.012 E2.88322
G1 X139.415 Y118.399 E2.89893
G1 X139.010 Y118.707 E2.91464
G1 X138.550 Y118.920 E2.93035
G1 X138.054 Y119.029 E2.94606
G1 X137.546 Y119.029 E2.96177
G1 X137.050 Y118.920 E2.97748
G1 X136.580 Y118.690 E2.99367
G1 X136.544 Y118.229 F7800.000
G1 X137.099 Y116.988 F7800.000
G1 F1800
G1 X138.093 Y115.995 E3.04583
G1 X138.360 Y116.788 F7800.000
G1 F1800
G1 X137.874 Y117.274 E3.07135
G1 E1.07135 F2400.00000
G92 E0
G1 X137.682 Y81.779 F7800.000
G1 E2.00000 F2400.00000
G1 F1800
G1 X137.452 Y81.728 E2.00730
G1 X137.238 Y81.629 E2.01460
G1 X137.050 Y81.487 E2.02189
G1 X136.897 Y81.307 E2.02919
G1 X136.787 Y81.099 E2.03649
G1 X136.724 Y80.871 E2.04379
G1 X136.711 Y80.636 E2.05109
G1 X136.749 Y80.403 E2.05838
G1 X136.836 Y80.184 E2.06568
G1 X136.969 Y79.989 E2.07298
G1 X137.140 Y79.826 E2.08028
G1 X137.342 Y79.705 E2.08758
G1 X137.555 Y79.633 E2.09454
G1 X137.827 Y79.607 E2.10300
G1 X138.034 Y79.630 E2.10944
G1 X138.258 Y79.705 E2.11674
G1 X138.460 Y79.826 E2.12404
G1 X138.631 Y79.989 E2.13134
G1 X138.764 Y80.184 E2.13864
G1 X138.851 Y80.403 E2.14593
G1 X138.889 Y80.636 E2.15323
G1 X138.876 Y80.871 E2.16053
G1 X138.813 Y81.099 E2.16783
G1 X138.703 Y81.307 E2.17513
G1 X138.550 Y81.487 E2.18243
G1 X138.362 Y81.629 E2.18972
G1 X138.148 Y81.728 E2.19702
G1 X137.918 Y81.779 E2.20432
G1 X137.757 Y81.779 E2.20930
G1 X137.682 Y82.404 F7800.000
G1 F1800
G1 X137.251 Y82.324 E2.22286
G1 X136.914 Y82.168 E2.23437
G1 X136.618 Y81.943 E2.24587
G1 X136.377 Y81.660 E2.25737
G1 X136.203 Y81.331 E2.26888
G1 X136.103 Y80.973 E2.28038
G1 X136.083 Y80.602 E2.29189
G1 X136.143 Y80.235 E2.30339
G1 X136.281 Y79.889 E2.31489
G1 X136.490 Y79.582 E2.32640
G1 X136.759 Y79.326 E2.33790
G1 X137.078 Y79.134 E2.34940
G1 X137.424 Y79.018 E2.36071
G1 X137.831 Y78.979 E2.37336
G1 X138.170 Y79.016 E2.38389
G1 X138.522 Y79.134 E2.39539
G1 X138.841 Y79.326 E2.40690
G1 X139.110 Y79.582 E2.41840
G1 X139.319 Y79.889 E2.42990
G1 X139.457 Y80.235 E2.44141
G1 X139.517 Y80.602 E2.45291
G1 X139.497 Y80.973 E2.46441
G1 X139.397 Y81.331 E2.47592
G1 X139.223 Y81.660 E2.48742
G1 X138.982 Y81.943 E2.49893
G1 X138.686 Y82.168 E2.51043
G1 X138.349 Y82.324 E2.52193
G1 X137.986 Y82.404 E2.53344
G1 X137.757 Y82.404 E2.54052
G1 X137.682 Y83.029 F7800.000
G1 F1800
G1 X137.546 Y83.029 E2.54472
G1 X137.050 Y82.920 E2.56043
G1 X136.590 Y82.707 E2.57614
G1 X136.185 Y82.399 E2.59185
G1 X135.857 Y82.012 E2.60756
G1 X135.619 Y81.564 E2.62327
G1 X135.483 Y81.075 E2.63898
G1 X135.456 Y80.568 E2.65469
G1 X135.538 Y80.067 E2.67040
G1 X135.726 Y79.595 E2.68611
G1 X136.010 Y79.175 E2.70182
G1 X136.379 Y78.826 E2.71753
G1 X136.814 Y78.564 E2.73323
G1 X137.293 Y78.403 E2.74887
G1 X137.836 Y78.351 E2.76574
G1 X138.305 Y78.402 E2.78034
G1 X138.786 Y78.564 E2.79605
G1 X139.221 Y78.826 E2.81175
G1 X139.590 Y79.175 E2.82746
G1 X139.874 Y79.595 E2.84317
G1 X140.062 Y80.067 E2.85888
G1 X140.144 Y80.568 E2.87459
G1 X140.117 Y81.075 E2.89030
G1 X139.981 Y81.564 E2.90601
G1 X139.743 Y82.012 E2.92172
G1 X139.415 Y82.399 E2.93743
G1 X139.010 Y82.707 E2.95314
G1 X138.550 Y82.920 E2.96885
G1 X138.054 Y83.029 E2.98456
G1 X137.757 Y83.029 E2.99374
G1 X137.609 Y82.914 F7800.000
G1 X137.874 Y81.274 F7800.000
G1 F1800
G1 X138.360 Y80.788 E3.01926
G1 X138.093 Y79.995 F7800.000
G1 F1800
G1 X137.099 Y80.988 E3.07141
G1 E1.07141 F2400.00000
G92 E0
G1 X63.289 Y80.636 F7800.000
G1 E2.00000 F2400.00000
G1 F1800
G1 X63.276 Y80.871 E2.00730
G1 X63.213 Y81.099 E2.01460
G1 X63.103 Y81.307 E2.02190
G1 X62.950 Y81.487 E2.02919
G1 X62.762 Y81.629 E2.03649
G1 X62.548 Y81.728 E2.04379
G1 X62.318 Y81.779 E2.05109
G1 X62.082 Y81.779 E2.05839
G1 X61.852 Y81.728 E2.06568
G1 X61.638 Y81.629 E2.07298
G1 X61.450 Y81.487 E2.08028
G1 X61.315 Y81.328 E2.08673
G1 X61.184 Y81.088 E2.09518
G1 X61.124 Y80.871 E2.10215
G1 X61.111 Y80.636 E2.10945
G1 X61.149 Y80.403 E2.11674
G1 X61.236 Y80.184 E2.12404
G1 X61.369 Y79.989 E2.13134
G1 X61.540 Y79.826 E2.13864
G1 X61.742 Y79.705 E2.14594
G1 X61.955 Y79.633 E2.15290
G1 X62.227 Y79.607 E2.16136
G1 X62.434 Y79.630 E2.16780
G1 X62.658 Y79.705 E2.17510
G1 X62.860 Y79.826 E2.18240
G1 X63.031 Y79.989 E2.18970
G1 X63.164 Y80.184 E2.19700
G1 X63.251 Y80.403 E2.20429
G1 X63.277 Y80.562 E2.20927
G1 X63.913 Y80.670 F7800.000
G1 F1800
G1 X63.897 Y80.973 E2.21867
G1 X63.797 Y81.331 E2.23018
G1 X63.623 Y81.660 E2.24168
G1 X63.382 Y81.943 E2.25318
G1 X63.086 Y82.168 E2.26469
G1 X62.749 Y82.324 E2.27619
G1 X62.386 Y82.404 E2.28769
G1 X62.014 Y82.404 E2.29920
G1 X61.651 Y82.324 E2.31070
G1 X61.314 Y82.168 E2.32221
G1 X61.018 Y81.943 E2.33371
G1 X60.797 Y81.684 E2.34423
G1 X60.601 Y81.325 E2.35689
G1 X60.503 Y80.973 E2.36819
G1 X60.483 Y80.602 E2.37970
G1 X60.543 Y80.235 E2.39120
G1 X60.681 Y79.889 E2.40271
G1 X60.890 Y79.582 E2.41421
G1 X61.159 Y79.326 E2.42571
G1 X61.478 Y79.134 E2.43722
G1 X61.824 Y79.018 E2.44852
G1 X62.231 Y78.979 E2.46118
G1 X62.570 Y79.016 E2.47170
G1 X62.922 Y79.134 E2.48320
G1 X63.241 Y79.326 E2.49471
G1 X63.510 Y79.582 E2.50621
G1 X63.719 Y79.889 E2.51772
G1 X63.857 Y80.235 E2.52922
G1 X63.916 Y80.595 E2.54051
G1 X64.537 Y80.703 F7800.000
G1 F1800
G1 X64.517 Y81.075 E2.55201
G1 X64.381 Y81.564 E2.56772
G1 X64.143 Y82.012 E2.58343
G1 X63.815 Y82.399 E2.59914
G1 X63.410 Y82.707 E2.61485
G1 X62.950 Y82.920 E2.63056
G1 X62.454 Y83.029 E2.64626
G1 X61.946 Y83.029 E2.66197
G1 X61.450 Y82.920 E2.67768
G1 X60.990 Y82.707 E2.69339
G1 X60.585 Y82.399 E2.70910
G1 X60.280 Y82.040 E2.72370
G1 X60.018 Y81.562 E2.74057
G1 X59.883 Y81.075 E2.75620
G1 X59.856 Y80.568 E2.77191
G1 X59.938 Y80.067 E2.78762
G1 X60.126 Y79.595 E2.80333
G1 X60.410 Y79.175 E2.81904
G1 X60.779 Y78.826 E2.83475
G1 X61.214 Y78.564 E2.85046
G1 X61.693 Y78.403 E2.86610
G1 X62.236 Y78.351 E2.88296
G1 X62.705 Y78.402 E2.89756
G1 X63.186 Y78.564 E2.91327
G1 X63.621 Y78.826 E2.92898
G1 X63.990 Y79.175 E2.94469
G1 X64.274 Y79.595 E2.96040
G1 X64.462 Y80.067 E2.97611
G1 X64.541 Y80.629 E2.99366
G1 X64.216 Y80.890 F7800.000
G1 X62.760 Y80.788 F7800.000
G1 F1800
G1 X62.274 Y81.274 E3.01919
G1 X61.500 Y80.988 F7800.000
G1 F1800
G1 X62.493 Y79.995 E3.07134
G1 E1.07134 F2400.00000
G92 E0
G1 X62.227 Y115.607 F7800.000
G1 E2.00000 F2400.00000
G1 F1800
G1 X62.434 Y115.630 E2.00645
G1 X62.658 Y115.705 E2.01375
G1 X62.860 Y115.826 E2.02104
G1 X63.031 Y115.989 E2.02834
G1 X63.164 Y116.184 E2.03564
G1 X63.251 Y116.403 E2.04294
G1 X63.289 Y116.636 E2.05024
G1 X63.276 Y116.871 E2.05753
G1 X63.213 Y117.099 E2.06483
G1 X63.103 Y117.307 E2.07213
G1 X62.950 Y117.487 E2.07943
G1 X62.762 Y117.629 E2.08673
G1 X62.548 Y117.728 E2.09402
G1 X62.318 Y117.779 E2.10132
G1 X62.082 Y117.779 E2.10862
G1 X61.852 Y117.728 E2.11592
G1 X61.638 Y117.629 E2.12322
G1 X61.450 Y117.487 E2.13052
G1 X61.297 Y117.307 E2.13781
G1 X61.187 Y117.099 E2.14511
G1 X61.124 Y116.871 E2.15241
G1 X61.111 Y116.636 E2.15971
G1 X61.149 Y116.403 E2.16701
G1 X61.236 Y116.184 E2.17430
G1 X61.369 Y115.989 E2.18160
G1 X61.540 Y115.826 E2.18890
G1 X61.742 Y115.705 E2.19620
G1 X61.955 Y115.633 E2.20317
G1 X62.153 Y115.614 E2.20930
G1 X62.168 Y114.985 F7800.000
G1 F1800
G1 X62.570 Y115.016 E2.22176
G1 X62.922 Y115.134 E2.23326
G1 X63.241 Y115.326 E2.24477
G1 X63.510 Y115.582 E2.25627
G1 X63.719 Y115.889 E2.26778
G1 X63.857 Y116.235 E2.27928
G1 X63.917 Y116.602 E2.29078
G1 X63.897 Y116.973 E2.30229
G1 X63.797 Y117.331 E2.31379
G1 X63.623 Y117.660 E2.32530
G1 X63.382 Y117.943 E2.33680
G1 X63.086 Y118.168 E2.34830
G1 X62.749 Y118.324 E2.35981
G1 X62.386 Y118.404 E2.37131
G1 X62.014 Y118.404 E2.38281
G1 X61.651 Y118.324 E2.39432
G1 X61.314 Y118.168 E2.40582
G1 X61.018 Y117.943 E2.41732
G1 X60.777 Y117.660 E2.42883
G1 X60.603 Y117.331 E2.44033
G1 X60.503 Y116.973 E2.45184
G1 X60.483 Y116.602 E2.46334
G1 X60.543 Y116.235 E2.47484
G1 X60.681 Y115.889 E2.48635
G1 X60.890 Y115.582 E2.49785
G1 X61.159 Y115.326 E2.50935
G1 X61.478 Y115.134 E2.52086
G1 X61.824 Y115.018 E2.53216
G1 X62.093 Y114.992 E2.54053
G1 X62.109 Y114.363 F7800.000
G1 F1800
G1 X62.236 Y114.351 E2.54447
G1 X62.705 Y114.402 E2.55907
G1 X63.186 Y114.564 E2.57478
G1 X63.621 Y114.826 E2.59049
G1 X63.990 Y115.175 E2.60620
G1 X64.274 Y115.595 E2.62191
G1 X64.462 Y116.067 E2.63762
G1 X64.544 Y116.568 E2.65333
G1 X64.517 Y117.075 E2.66904
G1 X64.381 Y117.564 E2.68475
G1 X64.143 Y118.012 E2.70046
G1 X63.815 Y118.399 E2.71617
G1 X63.410 Y118.707 E2.73188
G1 X62.950 Y118.920 E2.74758
G1 X62.454 Y119.029 E2.76329
G1 X61.946 Y119.029 E2.77900
G1 X61.450 Y118.920 E2.79471
G1 X60.990 Y118.707 E2.81042
G1 X60.585 Y118.399 E2.82613
G1 X60.257 Y118.012 E2.84184
G1 X60.019 Y117.564 E2.85755
G1 X59.883 Y117.075 E2.87326
G1 X59.856 Y116.568 E2.88897
G1 X59.938 Y116.067 E2.90468
G1 X60.126 Y115.595 E2.92039
G1 X60.410 Y115.175 E2.93610
G1 X60.779 Y114.826 E2.95181
G1 X61.214 Y114.564 E2.96751
G1 X61.693 Y114.403 E2.98315
G1 X62.034 Y114.370 E2.99375
G1 X62.187 Y114.464 F7800.000
G1 X62.493 Y115.995 F7800.000
G1 F1800
G1 X61.500 Y116.988 E3.04590
G1 X62.274 Y117.274 F7800.000
G1 F1800
G1 X62.760 Y116.788 E3.07142
G1 Z0.650 F7800.000
G1 E1.07142 F2400.00000
G92 E0
G1 X136.582 Y116.629 F7800.000
G1 E2.00000 F2400.00000
G1 F900
G1 X136.624 Y116.368 E2.00712
G1 X136.722 Y116.123 E2.01423
G1 X136.870 Y115.905 E2.02135
G1 X137.062 Y115.724 E2.02847
G1 X137.288 Y115.587 E2.03559
G1 X137.538 Y115.503 E2.04270
G1 X137.800 Y115.475 E2.04982
G1 X138.062 Y115.503 E2.05694
G1 X138.312 Y115.587 E2.06405
G1 X138.538 Y115.724 E2.07117
G1 X138.730 Y115.905 E2.07829
G1 X138.878 Y116.123 E2.08541
G1 X138.976 Y116.368 E2.09252
G1 X139.018 Y116.629 E2.09964
G1 X139.004 Y116.892 E2.10676
G1 X138.933 Y117.146 E2.11387
G1 X138.810 Y117.379 E2.12099
G1 X138.639 Y117.581 E2.12811
G1 X138.429 Y117.740 E2.13523
G1 X138.190 Y117.851 E2.14234
G1 X137.932 Y117.908 E2.14946
G1 X137.668 Y117.908 E2.15658
G1 X137.410 Y117.851 E2.16370
G1 X137.171 Y117.740 E2.17081
G1 X136.961 Y117.581 E2.17793
G1 X136.790 Y117.380 E2.18505
G1 X136.667 Y117.146 E2.19216
G1 X136.596 Y116.892 E2.19928
G1 X136.586 Y116.704 E2.20438
G1 X135.947 Y116.663 F7800.000
G1 F900
G1 X135.943 Y116.594 E2.20624
G1 X136.008 Y116.197 E2.21709
G1 X136.157 Y115.824 E2.22793
G1 X136.383 Y115.491 E2.23878
G1 X136.675 Y115.215 E2.24963
G1 X137.019 Y115.007 E2.26047
G1 X137.400 Y114.879 E2.27132
G1 X137.800 Y114.835 E2.28217
G1 X138.200 Y114.879 E2.29301
G1 X138.581 Y115.007 E2.30386
G1 X138.925 Y115.215 E2.31471
G1 X139.217 Y115.491 E2.32556
G1 X139.443 Y115.824 E2.33640
